Obsidian/actions/16s/mail-invitation.svg

<svg xmlns="http://www.w3.org/2000/svg" width="16" height="16" viewBox="0 0 16 16">
 <defs>
  <style id="current-color-scheme" type="text/css">
   .ColorScheme-Text { color:#bebebe; } .ColorScheme-Highlight { color:#4285f4; }
  </style>
 </defs>
 <path style="fill:currentColor" class="ColorScheme-Text" d="M 2 2.0039062 C 0.892 2.0039062 0 2.8959063 0 4.0039062 L 0 12.003906 C 0 13.111906 0.892 14.003906 2 14.003906 L 14 14.003906 C 15.108 14.003906 16 13.111906 16 12.003906 L 16 4.0039062 C 16 2.8959062 15.108 2.0039062 14 2.0039062 L 2 2.0039062 z M 8 4 C 9.1046 4 10 4.8955 10 6 C 10 7.1045 9.1046 8 8 8 C 6.8954 8 6 7.1045 6 6 C 6 4.8955 6.8954 4 8 4 z M 8 9 C 12 8.9982 12 11.400391 12 11.400391 L 12 12 L 4 12 L 4 11.400391 C 4 11.400391 3.9998 9.002 8 9 z"/>
</svg>

<svg height="16" viewBox="0 0 16 16" width="16" xmlns="http://www.w3.org/2000/svg"><path d="m2 2.0039062c-1.108 0-2 .8920001-2 2v7.9999998c0 1.108.892 2 2 2h12c1.108 0 2-.892 2-2v-7.9999998c0-1.108-.892-2-2-2zm6 1.9960938c1.1046 0 2 .8955 2 2s-.8954 2-2 2-2-.8955-2-2 .8954-2 2-2zm0 5c4-.0018 4 2.400391 4 2.400391v.599609h-8v-.599609s-.0002-2.398391 4-2.400391z" fill="#bebebe"/></svg>
